X:1
T:Title
%%score { ( 1 3 ) | 2 }
L:1/8
Q:1/4=106
M:4/4
K:D
V:1 treble nm="Grand Piano"
V:3 treble 
V:2 bass 
V:1
 [FA]2 [GB]2 [FA]3 G | F2 [CE]2 F2 GA | B2 d2 [Ac]2 [GB]2 | [FA]4 [DF]4 | [FA]2 [GB]2 [FA]3 G | %5
w: W.~H.~Doane * * *|||||
 F2 E2 A2 [FA][EA] | z2 [Fd]2 z4 | A6 z2 | [DFA]3 [DAd] [EGd][EGc][DGB][CGA] | %9
w: ||||
 [DFA]4 [Fd]2 [Ad][Ad] | [Bd]2 [GB][GB] [Bd]2 [GB]2 | [FA]6 [FA][FA] | [FA]2 [GB]2 [FA]3 G | %13
w: ||||
 F2 E2 A4 | B2 [Gc]2 [Fd]3 [B,EG] | [DF]2[K:bass] [G,CE]2 [F,D]4 |] %16
w: |||
V:2
 [D,D]2 [D,D]2 [D,D]3 [G,B,E] | [A,D]2 [A,,A,]2 [D,A,D]2 [E,A,C][F,A,D] | %2
 [G,D]2 [G,B,G]2[K:bass] [G,D]2 [G,D]2 | [D,D]4 [D,A,]4 | [D,D]2 [D,D]2 [D,D]3 [G,B,E] | %5
 [A,D]2 [G,A,C]2 [F,A,D]2 [D,A,][C,A,] | [B,,F,]2 .[B,,F,]2 [E,A,E]2 [E,^G,D]2 | [A,C]6 z2 | %8
 D,3 F, A,A,A,,A,, | D,4 [D,A,]2 [F,D][F,D] | [G,D]2 [G,D][G,D] [G,D]2 [G,D]2 | [D,D]6 [D,D][D,D] | %12
 [D,D]2 [D,D]2 [D,D]3 [G,B,E] | [A,D]2 [G,A,C]2 [F,A,D]4 | [G,D]2 [E,A,]2 [D,A,]3 G, | %15
 A,2 A,,2 D,4 |] %16
V:3
 x8 | x8 | x8 | x8 | x8 | x8 | [DB]2 z ^G, c2 B2 | x8 | x8 | x8 | x8 | x8 | x8 | x8 | x8 | %15
 x2[K:bass] x6 |] %16

